X:235
T:Cuckoo's Nest (traditional)
C:Traditional
L:1/4
M:2/2
R:Reel
S:Colin Hume's website,  colinhume.com  - chords can also be printed below the stave.
Q:1/2=90
K:Em
P:A
|: F/ | "Em"G/A/G/F/ Ee | "Em"BA/G/ "Am"AA | "Em"G/F/E "D"D E/F/ |1 "Em"GEEz/ :|2 "Em"GEEz |
P:B
[| "Em"eeef/e/ | "Bm"dBB3/^c/ | "G"ddde | "A7"^c/d/c/B/ AF |
"Em"G/A/G/F/ Ee | "Em"BA/G/ "Am"AA | "Em"G/F/E "D"D E/F/ | "Em"GEEz/ |]

